X:1
T:Title
%%score { 1 | ( 2 3 ) }
L:1/8
M:4/4
K:Eb
V:1 treble nm="Grand Piano"
V:2 bass 
V:3 bass 
V:1
 z4 z2[Q:1/4=106] B2 | B3 A G3 A | [DG]2 [DF]2 E3 E | A2 c2 e2 c2 |[M:3/4] B4 z2 |[M:1/4] B2 | %6
[M:4/4] B3 A G3 A | [B,DG]2 [A,DF]2 [G,E]3 [G,CE] | [A,CF]2 [A,CF]E G2 F2 | E4 z4 | %10
 G3 A [DF]3 [DG] | E2 E2 E3 [GB] | [Ge]2 e2 e2 e2 |[M:3/4] d4 z2 |[M:1/4] cd | %15
[M:4/4] [Ge]2 [Ge][Bd] [Ac]2 [Ae]2 | [GB]2 [GB][FA] [EG]2 [Ge]2 | %17
 [EGB]2 [EGB][FA] [B,EG]2 [A,DF]2 |[M:3/4] [G,E]4 z2 |] %19
V:2
 z4 z2 [E,G,E]2 | [E,G,E]3 [E,CE] [E,B,E]3 [E,CE] | [B,,B,]2 [B,,A,]2 [E,G,]3 [E,G,_D] | %3
 [A,C]2 [A,E]2 [A,CE]2 [A,E]2 |[M:3/4] [E,G,E]4 z2 |[M:1/4] [E,G,E]2 | %6
[M:4/4] [E,G,E]3 [E,CE] [E,B,E]3 [E,CE] | B,,2 B,,2 C,3 C, | A,,2 z [G,B,] [B,,B,]2 [B,,A,B,]2 | %9
 [E,G,B,]4 z4 | [E,B,E]3 [E,CE] [B,,A,]3 [B,,B,] | [E,G,]2 [E,A,C]2 [E,G,B,]3 [E,B,] | %12
 [E,B,]2[K:treble] [G,B,G]2 [B,G]2 [B,EG]2 |[M:3/4] [B,FA]4 z2 |[M:1/4] A-[F,B,A] | %15
[M:4/4][K:bass] [E,B,]2 [E,B,][G,B,] [A,E]2 [A,C]2 | [E,E]2 [E,E][E,C] [E,B,]2 [E,B,]2 | %17
 E,2 z C B,,2 B,,2 |[M:3/4] E,4 z2 |] %19
V:3
 x8 | x8 | x8 | x8 |[M:3/4] x6 |[M:1/4] x2 |[M:4/4] x8 | x8 | z2 A,,2 z4 | x8 | x8 | x8 | %12
 x2[K:treble] x6 |[M:3/4] x6 |[M:1/4] [A,E] z |[M:4/4][K:bass] x8 | x8 | z2 E,2 z4 |[M:3/4] x6 |] %19

